archdroid-icon-theme/Archdroid-Grey/status/scalable/network-wired-disconnected.svg

<svg fill="#9E9E9E" height="48" viewBox="0 0 48 48" width="48" xmlns="http://www.w3.org/2000/svg"><g fill="#9E9E9E"><path d="m18 6-2.560547 2.552734 5.427735 5.427735h5.132812zm-5.390625 5.378906-2.609375 2.601563h5.210938zm3.390625 3.390625v13.230469h4v-9.230469zm12 5.230469v1.113281l4 4v-5.113281zm0 6.769531v7.25h-6l8 7.980469 6.623047-6.607422-1.373047-1.373047h-3.25v-3.25z"/><path d="m-55.941124-2.04163h44v4h-44z" stroke-width="4" transform="matrix(-.70710678 -.70710678 -.70710678 .70710678 0 0)"/></g></svg>

<svg fill="#9E9E9E" height="48" version="1.1" viewBox="0 0 48 48" width="48" xmlns="http://www.w3.org/2000/svg"><path d="M18 6L15.439453 8.552734 20.867188 13.980469 26 13.980469 18 6zM12.609375 11.378906L10 13.980469 15.210938 13.980469 12.609375 11.378906zM16 14.769531L16 28 20 28 20 18.769531 16 14.769531zM28 20L28 21.113281 32 25.113281 32 20 28 20zM28 26.769531L28 34.019531 22 34.019531 30 42 36.623047 35.392578 35.25 34.019531 32 34.019531 32 30.769531 28 26.769531z"/><path d="M-55.941124-2.04163H-11.941124V1.95837H-55.941124Z" fill="#9E9E9E" stroke-width="4" transform="matrix(-.70710678 -.70710678 -.70710678 .70710678 0 0)"/></svg>
